X:1
T:Montpellier Codex #78
T:Montpellier Codex #78
T:Anonymous
T:2011 by Paul R Marchesano. May be freely copied for nonprofit use.
T:2011 by Paul R Marchesano. May be freely copied for nonprofit use.
C:Anonymous
Z:2011 by Paul R Marchesano. May be freely copied for nonprofit use.
%%score 1 2 3 4
L:1/8
Q:1/4=99
M:6/8
K:C
V:1 treble-8 nm="Quadruple"
V:2 treble-8 nm="Triple"
V:3 treble-8 nm="Double"
V:4 treble-8 nm="Teneur"
V:1
 f2 g ag (3f/e/d/ | c2 f efg | f2 z ag (3f/e/d/ | c2 z e2 f/e/ | d2 z d2 e/f/ | g2 f/e/ d/c/de | %6
w: Dieus! _ Mout _ me _ _|fet so- vent _ fre-|mir, Quant _ la _ _|voi En es- *|mai: M'a mis _|mout en- * veil- * * *|
 f2 z a2 f | g2 (3f/e/d/ c2 (3d/e/f/ | ed z f2 (3e/d/c/ | f2 f e/d/cB | c2 B def | g2 z f2 g | %12
w: le; Por m'a-|mi- e _ _ mout sos- * *|pir _ So- vent, _ _|car ele est _ _ bele|a mer- veil- * *|le: Com- *|
 a2 g f2 e | ded !fermata!c3 |] %14
w: me rose est ver-|meil- * * le.|
V:2
 f2 g e2 e/d/ | f2 e/d/ e2 c/d/ | f2 z e2 d/e/ | f2 z e2 d/c/ | A2 z d2 c | d2 e dcd | c2 z e2 f | %7
w: Dieus! _ Je fui _|ja pres _ de jo- *|ïr: Or n'i _|voi Qui de _|moi Gue- rir|s'a- pa- reil- * *|le De ce|
 ed e/f/ e/d/ec | d2 z c2 d | c2 B c2 d/e/ | f2 e dec | d2 z f/e/fg | e2 d/e/ f2 e | %13
w: que _ j'aim _ sans _ _ men-|tir, Sans par-|tir; Mès quant plus _|me tra- veil- * *|le, Plus _ _ _|l'aim, c'est _ grant mer-|
 g/f/e/d/e e f2 |] %14
w: veil- * * * * le. _|
V:3
 c2 B A2 B | c2 d B2 d | c2 z A2 B | c2 z B2 c | d2 z A2 _B | AGF GA_B | c2 z A2 F | %7
w: Dieus! _ Je ni|puis la nuit dor-|mir, Qu'a- dés|oi Ne sai|quoi Qu'a- mours|me _ con- seil- * *|le, Que si|
 G2 A/_B/ A/G/FG | A2 z F2 G/A/ | cde f/e/fd | c2 B d2 c | _B/A/G z c2 B | A2 B c2 B | %13
w: me fet _ tre- * * sail-|lir Et fre- *|mir, _ Si que, _ _ quant|je so- meil- *|le, _ _ Li _|maus d'a- mer m'es-|
 GAB !fermata!c3 |] %14
w: veil- * * le.|
V:4
 F2 G A2 G | F2 z E2 G | F2 z A2 G | F2 z E2 F | D2 z D2 F | G2 z G2 G | F2 z A2 _B | G2 z F2 F | %8
w: Et _ _ vi-|* de _|_ Et *|* vi- *|* de *|* Et vi-|* de _|_ Et vi-|
 D2 z F2 D | F2 z F2 F | F2 z D2 F | G2 z F2 G | A2 G F2 z | G2 G !fermata!F3 |] %14
w: * de _|_ Et vi-|de Et _|_ vi- *|* de _|vi- de _|

